public/avatar/item2/2.svg

<svg xmlns:xlink="http://www.w3.org/1999/xlink" height="99.2" width="82.2" xmlns="http://www.w3.org/2000/svg"><use height="9.05" transform="translate(16.8 69.25)" width="28.45" xlink:href="#a"/><defs><g id="a" fill-rule="evenodd"><path d="M.15 29.8q-8.75 0-12.4-3.65-1.85-1.8-1.95-3.65 7.75 3.3 14.35 3.3 1.35 0 1.25 2-.15 2-1.25 2" transform="translate(14.2 -22.5)"/><path d="m.05 28.7 2.15.5-2.25 2.35-2.1-2.2 2.2-.65" transform="translate(14.2 -22.5)"/><path d="M14.25 22.5q-.1 1.85-1.95 3.65Q8.6 29.8-.15 29.8q-6.6-4 0-4 6.65 0 14.4-3.3" transform="translate(14.2 -22.5)"/><path d="M.1 27.75q-10.15 0-13.55-3.8 7.25 2.6 13.6 2.6 6.4 0 13.2-3.2-3.1 4.4-13.25 4.4" fill="#787878" transform="translate(14.2 -22.5)"/><path d="M-.05 26.4q1.7 0 1.7 1.7t-1.7 1.7q-1.7 0-1.7-1.7t1.7-1.7" fill="#ebebeb" transform="translate(14.2 -22.5)"/><path d="m1.35 28.8-1.3 1.75-1.7-1.95 3 .2m-9.55-3.75q.95.25.85 1.8-.1 1.55-1.05 1.15-.95-.4-.9-1.85.05-1.45 1.1-1.1m3.85.95q1.35.1 1.25 1.7-.1 1.6-1.35 1.4-1.3-.2-1.35-1.75-.05-1.55 1.45-1.35" fill="#ebebeb" transform="translate(14.2 -22.5)"/><path d="m-5.25 26.2.8 2.9-2.7-.55 1.9-2.35m-3.65-.85.5 2.65-1.55-.7 1.05-1.95m-2-1.3q.65.25.65 1.6 0 1.3-.6 1.05-.6-.3-.65-1.6-.05-1.25.6-1.05" fill="#ebebeb" transform="translate(14.2 -22.5)"/><path d="m-11.2 24.15.35 2.55-1.7-.65 1.35-1.9m19.6.9q1.05-.35 1.05 1.1.05 1.45-.9 1.85-.95.4-1-1.15-.1-1.55.85-1.8M4.5 26q1.55-.2 1.5 1.35 0 1.55-1.35 1.75-1.3.2-1.4-1.4-.1-1.6 1.25-1.7" fill="#ebebeb" transform="translate(14.2 -22.5)"/><path d="m5.4 26.2 1.65 2.25-2.4.65.75-2.9m3.65-.85 1.1 1.95-1.6.7.5-2.65m1.95-1.3q.65-.2.6 1.05-.05 1.3-.65 1.6-.6.25-.6-1.05 0-1.35.65-1.6" fill="#ebebeb" transform="translate(14.2 -22.5)"/><path d="m11.35 24.15 1.3 1.9-1.7.65.4-2.55" fill="#ebebeb" transform="translate(14.2 -22.5)"/></g></defs></svg>

<?xml version="1.0" encoding="UTF-8" standalone="no"?>
<svg xmlns:xlink="http://www.w3.org/1999/xlink" height="99.2px" width="82.2px" xmlns="http://www.w3.org/2000/svg">
  <g transform="matrix(1.0, 0.0, 0.0, 1.0, 31.0, 46.75)">
    <use height="9.05" transform="matrix(1.0, 0.0, 0.0, 1.0, -14.2, 22.5)" width="28.45" xlink:href="#shape0"/>
  </g>
  <defs>
    <g id="shape0" transform="matrix(1.0, 0.0, 0.0, 1.0, 14.2, -22.5)">
      <path d="M0.15 29.8 Q-8.6 29.8 -12.25 26.15 -14.1 24.35 -14.2 22.5 -6.45 25.8 0.15 25.8 1.5 25.8 1.4 27.8 1.25 29.8 0.15 29.8" fill="#000000" fill-rule="evenodd" stroke="none"/>
      <path d="M0.05 28.7 L2.2 29.2 -0.05 31.55 -2.15 29.35 0.05 28.7" fill="#000000" fill-rule="evenodd" stroke="none"/>
      <path d="M14.25 22.5 Q14.15 24.35 12.3 26.15 8.6 29.8 -0.15 29.8 -6.75 25.8 -0.15 25.8 6.5 25.8 14.25 22.5" fill="#000000" fill-rule="evenodd" stroke="none"/>
      <path d="M0.1 27.75 Q-10.05 27.75 -13.45 23.95 -6.2 26.55 0.15 26.55 6.55 26.55 13.35 23.35 10.25 27.75 0.1 27.75" fill="#787878" fill-rule="evenodd" stroke="none"/>
      <path d="M-0.05 26.4 Q1.65 26.4 1.65 28.1 1.65 29.8 -0.05 29.8 -1.75 29.8 -1.75 28.1 -1.75 26.4 -0.05 26.4" fill="#ebebeb" fill-rule="evenodd" stroke="none"/>
      <path d="M1.35 28.8 L0.05 30.55 -1.65 28.6 1.35 28.8" fill="#ebebeb" fill-rule="evenodd" stroke="none"/>
      <path d="M-8.2 25.05 Q-7.25 25.3 -7.35 26.85 -7.45 28.4 -8.4 28.0 -9.35 27.6 -9.3 26.15 -9.25 24.7 -8.2 25.05" fill="#ebebeb" fill-rule="evenodd" stroke="none"/>
      <path d="M-4.35 26.0 Q-3.0 26.1 -3.1 27.7 -3.2 29.3 -4.45 29.1 -5.75 28.9 -5.8 27.35 -5.85 25.8 -4.35 26.0" fill="#ebebeb" fill-rule="evenodd" stroke="none"/>
      <path d="M-5.25 26.2 L-4.45 29.1 -7.15 28.55 -5.25 26.2" fill="#ebebeb" fill-rule="evenodd" stroke="none"/>
      <path d="M-8.9 25.35 L-8.4 28.0 -9.95 27.3 -8.9 25.35" fill="#ebebeb" fill-rule="evenodd" stroke="none"/>
      <path d="M-10.9 24.05 Q-10.25 24.3 -10.25 25.65 -10.25 26.95 -10.85 26.7 -11.45 26.4 -11.5 25.1 -11.55 23.85 -10.9 24.05" fill="#ebebeb" fill-rule="evenodd" stroke="none"/>
      <path d="M-11.2 24.15 L-10.85 26.7 -12.55 26.05 -11.2 24.15" fill="#ebebeb" fill-rule="evenodd" stroke="none"/>
      <path d="M8.4 25.05 Q9.45 24.7 9.45 26.15 9.5 27.6 8.55 28.0 7.6 28.4 7.55 26.85 7.45 25.3 8.4 25.05" fill="#ebebeb" fill-rule="evenodd" stroke="none"/>
      <path d="M4.5 26.0 Q6.05 25.8 6.0 27.35 6.0 28.9 4.65 29.1 3.35 29.3 3.25 27.7 3.15 26.1 4.5 26.0" fill="#ebebeb" fill-rule="evenodd" stroke="none"/>
      <path d="M5.4 26.2 L7.05 28.45 4.65 29.1 5.4 26.2" fill="#ebebeb" fill-rule="evenodd" stroke="none"/>
      <path d="M9.05 25.35 L10.15 27.3 8.55 28.0 9.05 25.35" fill="#ebebeb" fill-rule="evenodd" stroke="none"/>
      <path d="M11.0 24.05 Q11.65 23.85 11.6 25.1 11.55 26.4 10.95 26.7 10.35 26.95 10.35 25.65 10.35 24.3 11.0 24.05" fill="#ebebeb" fill-rule="evenodd" stroke="none"/>
      <path d="M11.35 24.15 L12.65 26.05 10.95 26.7 11.35 24.15" fill="#ebebeb" fill-rule="evenodd" stroke="none"/>
    </g>
  </defs>
</svg>
